svg/emoji_u1f4da.svg

<svg width="128" height="128" viewBox="0 0 128 128" fill="none" xmlns="http://www.w3.org/2000/svg">
<path d="M118.03 102.32L72.29 123C69.47 124.33 66.53 124.2 63.83 122.64L6.08998 93.32C4.43998 92.26 3.94998 90.71 4.04998 89.63C4.14998 88.55 4.39998 87.38 7.29998 86.54L11.58 84.96L69.5 116.53L110.66 99.71L118.03 102.32Z" fill="#01579B" style="fill:#01579B;fill:color(display-p3 0.0039 0.3412 0.6078);fill-opacity:1;"/>
<path d="M71.7397 119.69C69.4197 120.78 66.7098 120.68 64.4798 119.43L8.10975 91.0296C7.30975 90.5896 7.06975 89.5797 7.54975 88.7997C8.78975 86.7497 11.0697 80.2696 7.30975 74.8896L70.9697 105.54L71.7397 119.69Z" fill="#F5F5F5" style="fill:#F5F5F5;fill:color(display-p3 0.9608 0.9608 0.9608);fill-opacity:1;"/>
<path d="M115.59 99.9799C115.59 99.9799 71.7598 119.68 71.7398 119.69C70.2898 120.32 67.3998 121.44 64.0698 119.2C66.6998 119.39 68.5498 118.3 69.4998 116.53C70.4298 114.81 70.1498 111.99 69.0198 110.4C68.3298 109.44 66.4798 107.91 65.6698 107.05L113.1 88.4999C117.3 86.7699 121.24 89.3599 121.87 92.5099C122.57 96.0699 118.03 98.9799 115.59 99.9799Z" fill="#94C6D6" style="fill:#94C6D6;fill:color(display-p3 0.5804 0.7765 0.8392);fill-opacity:1;"/>
<path d="M117.78 86.9599L72.5099 107.16C69.6599 108.29 66.4699 108.14 63.7399 106.76L5.89987 77.3799C5.33987 77.0999 4.50987 76.3299 4.17987 75.2799C3.63987 73.5299 4.31987 71.3299 6.36987 70.6299L69.0499 102.58L111.97 84.2099L117.78 86.9599Z" fill="#01579B" style="fill:#01579B;fill:color(display-p3 0.0039 0.3412 0.6078);fill-opacity:1;"/>
<path d="M121.19 89.89L116.26 88.1L106.1 88.69L72.5199 103.68C69.6699 104.81 66.4799 104.66 63.75 103.28L5.89995 73.91C4.40995 73.15 4.72995 70.94 6.36995 70.63L48.06 51.98C49.25 51.76 50.47 51.89 51.58 52.36L111.07 80.72C111.07 80.72 120.52 87.19 121.19 89.89Z" fill="#0091EA" style="fill:#0091EA;fill:color(display-p3 0.0000 0.5686 0.9176);fill-opacity:1;"/>
<path d="M105.53 88.9798C105.53 88.9798 111.79 86.5298 116.71 86.7498C121.63 86.9698 123.34 90.4198 123.34 90.4198C122.41 86.1898 118.04 84.0298 118.04 84.0298L53.0398 51.2998C52.5898 51.1098 50.9298 50.7198 48.3798 51.7698C46.3198 52.6198 39.5898 55.7698 39.5898 55.7698L105.53 88.9798Z" fill="#616161" style="fill:#616161;fill:color(display-p3 0.3804 0.3804 0.3804);fill-opacity:1;"/>
<path d="M123.62 91.2197C123.15 89.3497 121.99 87.3497 119.85 86.3797C117.03 85.1097 113.01 85.4397 110.44 86.7797L105.53 88.9597V92.4197L111.74 89.6597C117.78 86.9697 120.46 90.9997 120.69 91.9497C121.65 95.8197 119.79 98.0597 114.3 100.58L105.38 104.6V108.08L115.64 103.51C120.18 101.69 125.36 98.2697 123.62 91.2197Z" fill="#424242" style="fill:#424242;fill:color(display-p3 0.2588 0.2588 0.2588);fill-opacity:1;"/>
<path d="M33.01 90.31L15.74 66.44L18.45 65.23L37.88 91.93L33.01 90.31Z" fill="#01579B" style="fill:#01579B;fill:color(display-p3 0.0039 0.3412 0.6078);fill-opacity:1;"/>
<path d="M55.1601 101.31L52.0801 98.87L105.53 87.96V89.71L98.0401 92.55L55.1601 101.31Z" fill="#01579B" style="fill:#01579B;fill:color(display-p3 0.0039 0.3412 0.6078);fill-opacity:1;"/>
<path d="M14.8 46.1799L82.31 34.8999L111.8 67.3699C113.29 68.9399 112.48 71.5399 110.36 71.9699L40.66 86.2699L14.8 46.1799Z" fill="#F44336" style="fill:#F44336;fill:color(display-p3 0.9569 0.2627 0.2118);fill-opacity:1;"/>
<path d="M110.36 69.17L41.1399 83.19L40.9199 86.49L110.36 72.25C112.32 71.84 113.14 69.6 112.07 68.02C111.69 68.58 111.11 69.02 110.36 69.17Z" fill="#C62828" style="fill:#C62828;fill:color(display-p3 0.7765 0.1569 0.1569);fill-opacity:1;"/>
<path d="M114.09 84.3001C114.82 85.4601 114.16 86.9901 112.82 87.2601L49.1001 100.18C45.2701 100.97 41.5101 98.4601 41.1701 94.5601C40.8801 91.2601 43.1101 88.2701 46.3601 87.5901L107.64 73.8301L114.09 84.3001Z" fill="#C62828" style="fill:#C62828;fill:color(display-p3 0.7765 0.1569 0.1569);fill-opacity:1;"/>
<path d="M55.5899 80.0998L30.2099 43.7798L15.7299 47.6098C12.3799 50.9398 13.6299 56.4098 13.6299 56.4098C13.6299 56.4098 35.7999 91.9898 39.2999 96.5398C42.7999 101.09 47.9099 100.38 47.9099 100.38L56.5399 98.6398L55.6399 82.5398L55.5899 80.0998Z" fill="#616161" style="fill:#616161;fill:color(display-p3 0.3804 0.3804 0.3804);fill-opacity:1;"/>
<path d="M55.59 80.3398L43.4 82.8598C40.07 83.6098 39.47 86.7398 39.47 86.7398L10.04 44.5698C10.04 44.5698 5.85 49.6398 8.63 53.9498L39.3 96.5398C42.65 101.31 47.91 100.42 47.91 100.42L56.54 98.6798L55.65 82.8998L55.59 80.3398Z" fill="#424242" style="fill:#424242;fill:color(display-p3 0.2588 0.2588 0.2588);fill-opacity:1;"/>
<path d="M110.25 82.9998C110.56 83.6798 110.16 84.4698 109.43 84.6198L48.4999 97.1198C44.6699 97.9098 41.9599 95.3698 42.0999 91.9098C42.2799 87.5398 44.7299 85.6898 47.9699 85.0198L109.2 72.5098C109.2 72.5098 107.12 74.8498 108.71 79.2298C109.25 80.7398 109.83 82.0798 110.25 82.9998Z" fill="#B9E4EA" style="fill:#B9E4EA;fill:color(display-p3 0.7255 0.8941 0.9176);fill-opacity:1;"/>
<path d="M45.2101 83.6998L19.1001 46.7598" stroke="#424242" style="stroke:#424242;stroke:color(display-p3 0.2588 0.2588 0.2588);stroke-opacity:1;" stroke-width="2.071" stroke-miterlimit="10"/>
<path d="M47.2601 67.9498L13.6801 51.0298L12.3201 53.7098L51.1201 73.4798L47.2601 67.9498Z" fill="#424242" style="fill:#424242;fill:color(display-p3 0.2588 0.2588 0.2588);fill-opacity:1;"/>
<path d="M108.79 64.0301L106.33 61.3301L68.5 78.6901L47.26 68.1801L50.88 73.3601L64.95 80.5501L75.43 78.9401L108.79 64.0301Z" fill="#C62828" style="fill:#C62828;fill:color(display-p3 0.7765 0.1569 0.1569);fill-opacity:1;"/>
<path d="M118.02 57.3498L72.29 78.0298C69.47 79.3598 66.53 79.2298 63.83 77.6698L6.08998 48.3498C4.43998 47.2898 3.94998 45.7398 4.04998 44.6598C4.14998 43.5798 4.39998 42.4098 7.29998 41.5698L10.01 40.5698L69.33 69.6798L117.5 49.7498L118.02 57.3498Z" fill="#689F38" style="fill:#689F38;fill:color(display-p3 0.4078 0.6235 0.2196);fill-opacity:1;"/>
<path d="M71.73 74.7199C69.41 75.8099 66.7 75.7099 64.47 74.4599L8.09998 46.0599C7.29998 45.6199 7.05998 44.6099 7.53998 43.8299C8.77998 41.7799 11.06 35.2999 7.29998 29.9199L69.54 61.5799L71.73 74.7199Z" fill="#F5F5F5" style="fill:#F5F5F5;fill:color(display-p3 0.9608 0.9608 0.9608);fill-opacity:1;"/>
<path d="M115.58 55.0097C115.58 55.0097 71.7501 74.7097 71.7301 74.7197C70.2801 75.3497 67.3901 76.4697 64.0601 74.2297C66.6901 74.4197 68.5401 73.3297 69.4901 71.5597C70.4201 69.8397 70.1401 67.0197 69.0101 65.4297C68.3201 64.4697 66.4701 62.9397 65.6601 62.0797L113.09 43.5297C117.29 41.7997 121.23 44.3897 121.86 47.5397C122.56 51.0997 118.02 54.0097 115.58 55.0097Z" fill="#94C6D6" style="fill:#94C6D6;fill:color(display-p3 0.5804 0.7765 0.8392);fill-opacity:1;"/>
<path d="M117.78 41.9897L72.51 62.1897C69.66 63.3197 66.47 63.1697 63.74 61.7897L5.88997 32.4097C5.28997 32.1097 4.38997 31.3397 4.09997 30.2497C3.66997 28.6297 4.22997 26.4997 6.35997 25.6597L59.37 14.4297L117.78 41.9897Z" fill="#689F38" style="fill:#689F38;fill:color(display-p3 0.4078 0.6235 0.2196);fill-opacity:1;"/>
<path d="M121.18 44.9198L116.25 43.1298L106.09 43.7198L72.51 58.7098C69.66 59.8398 66.47 59.6898 63.74 58.3098L5.88997 28.9298C4.39997 28.1698 4.92997 26.1598 6.35997 25.6498L48.06 7.00979C49.25 6.78979 50.47 6.91979 51.58 7.38979L111.07 35.7498C111.07 35.7498 120.51 42.2098 121.18 44.9198Z" fill="#9CCC65" style="fill:#9CCC65;fill:color(display-p3 0.6118 0.8000 0.3961);fill-opacity:1;"/>
<path d="M105.53 43.9998C105.53 43.9998 110.74 42.1698 115.66 42.3898C120.58 42.6098 123.35 45.4398 123.35 45.4398C122.34 40.9198 118.05 39.0498 118.05 39.0498L53.0499 6.31985C52.5999 6.12985 50.9399 5.73985 48.3899 6.78985C46.3299 7.63985 39.5999 10.7898 39.5999 10.7898L105.53 43.9998Z" fill="#616161" style="fill:#616161;fill:color(display-p3 0.3804 0.3804 0.3804);fill-opacity:1;"/>
<path d="M111.48 41.8598L44.97 8.30982L47.17 7.31982L114.81 41.2198L111.48 41.8598Z" fill="#424242" style="fill:#424242;fill:color(display-p3 0.2588 0.2588 0.2588);fill-opacity:1;"/>
<path d="M123.61 46.2496C123.14 44.3796 122.35 42.5696 120.12 41.6296C117.27 40.4296 114.67 40.1796 110.43 41.8096L105.52 43.9896V47.4496L111.73 44.6896C114.88 43.2096 119.52 43.5296 120.68 46.9796C121.95 50.7596 119.78 53.0896 114.29 55.6096L105.37 59.6296V63.1096L115.63 58.5396C120.18 56.7196 125.36 53.2996 123.61 46.2496Z" fill="#424242" style="fill:#424242;fill:color(display-p3 0.2588 0.2588 0.2588);fill-opacity:1;"/>
</svg>

<?xml version="1.0" encoding="utf-8"?>
<!-- Generator: Adobe Illustrator 25.2.3, SVG Export Plug-In . SVG Version: 6.00 Build 0)  -->
<svg version="1.1" id="Layer_5" xmlns="http://www.w3.org/2000/svg" xmlns:xlink="http://www.w3.org/1999/xlink" x="0px" y="0px"
	 viewBox="0 0 128 128" style="enable-background:new 0 0 128 128;" xml:space="preserve">
<g>
	<g>
		<path style="fill:#01579B;" d="M118.03,102.32L72.29,123c-2.82,1.33-5.76,1.2-8.46-0.36L6.09,93.32
			c-1.65-1.06-2.14-2.61-2.04-3.69c0.1-1.08,0.35-2.25,3.25-3.09l4.28-1.58l57.92,31.57l41.16-16.82L118.03,102.32z"/>
		<path style="fill:#F5F5F5;" d="M71.74,119.69c-2.32,1.09-5.03,0.99-7.26-0.26L8.11,91.03c-0.8-0.44-1.04-1.45-0.56-2.23
			c1.24-2.05,3.52-8.53-0.24-13.91l63.66,30.65L71.74,119.69z"/>
		<path style="fill:#94C6D6;" d="M115.59,99.98c0,0-43.83,19.7-43.85,19.71c-1.45,0.63-4.34,1.75-7.67-0.49
			c2.63,0.19,4.48-0.9,5.43-2.67c0.93-1.72,0.65-4.54-0.48-6.13c-0.69-0.96-2.54-2.49-3.35-3.35l47.43-18.55
			c4.2-1.73,8.14,0.86,8.77,4.01C122.57,96.07,118.03,98.98,115.59,99.98z"/>
		<path style="fill:#01579B;" d="M117.78,86.96l-45.27,20.2c-2.85,1.13-6.04,0.98-8.77-0.4L5.9,77.38c-0.56-0.28-1.39-1.05-1.72-2.1
			c-0.54-1.75,0.14-3.95,2.19-4.65l62.68,31.95l42.92-18.37L117.78,86.96z"/>
		<path style="fill:#0091EA;" d="M121.19,89.89l-4.93-1.79l-10.16,0.59l-33.58,14.99c-2.85,1.13-6.04,0.98-8.77-0.4L5.9,73.91
			c-1.49-0.76-1.17-2.97,0.47-3.28l41.69-18.65c1.19-0.22,2.41-0.09,3.52,0.38l59.49,28.36C111.07,80.72,120.52,87.19,121.19,89.89z
			"/>
		<path style="fill:#616161;" d="M105.53,88.98c0,0,6.26-2.45,11.18-2.23c4.92,0.22,6.63,3.67,6.63,3.67
			c-0.93-4.23-5.3-6.39-5.3-6.39l-65-32.73c-0.45-0.19-2.11-0.58-4.66,0.47c-2.06,0.85-8.79,4-8.79,4L105.53,88.98z"/>
		<path style="fill:#424242;" d="M123.62,91.22c-0.47-1.87-1.63-3.87-3.77-4.84c-2.82-1.27-6.84-0.94-9.41,0.4l-4.91,2.18v3.46
			l6.21-2.76c6.04-2.69,8.72,1.34,8.95,2.29c0.96,3.87-0.9,6.11-6.39,8.63l-8.92,4.02v3.48l10.26-4.57
			C120.18,101.69,125.36,98.27,123.62,91.22z"/>
	</g>
	<g>
		<polygon style="fill:#01579B;" points="33.01,90.31 15.74,66.44 18.45,65.23 37.88,91.93 		"/>
	</g>
	<g>
		<polygon style="fill:#01579B;" points="55.16,101.31 52.08,98.87 105.53,87.96 105.53,89.71 98.04,92.55 		"/>
	</g>
	<g>
		<path style="fill:#9CCC65;" d="M14.8,46.18L82.31,34.9l29.49,32.47c1.49,1.57,0.68,4.17-1.44,4.6l-69.7,14.3L14.8,46.18z"/>
		<g>
			<path style="fill:#689F38;" d="M110.36,69.17L41.14,83.19l-0.22,3.3l69.44-14.24c1.96-0.41,2.78-2.65,1.71-4.23
				C111.69,68.58,111.11,69.02,110.36,69.17z"/>
		</g>
		<path style="fill:#689F38;" d="M114.09,84.3c0.73,1.16,0.07,2.69-1.27,2.96L49.1,100.18c-3.83,0.79-7.59-1.72-7.93-5.62v0
			c-0.29-3.3,1.94-6.29,5.19-6.97l61.28-13.76L114.09,84.3z"/>
		<path style="fill:#616161;" d="M55.59,80.1L30.21,43.78l-14.48,3.83c-3.35,3.33-2.1,8.8-2.1,8.8S35.8,91.99,39.3,96.54
			c3.5,4.55,8.61,3.84,8.61,3.84l8.63-1.74l-0.9-16.1L55.59,80.1z"/>
		<path style="fill:#424242;" d="M55.59,80.34L43.4,82.86c-3.33,0.75-3.93,3.88-3.93,3.88L10.04,44.57c0,0-4.19,5.07-1.41,9.38
			L39.3,96.54c3.35,4.77,8.61,3.88,8.61,3.88l8.63-1.74L55.65,82.9L55.59,80.34z"/>
		<path style="fill:#B9E4EA;" d="M110.25,83c0.31,0.68-0.09,1.47-0.82,1.62l-60.93,12.5c-3.83,0.79-6.54-1.75-6.4-5.21
			c0.18-4.37,2.63-6.22,5.87-6.89l61.23-12.51c0,0-2.08,2.34-0.49,6.72C109.25,80.74,109.83,82.08,110.25,83z"/>
		<line style="fill:none;stroke:#424242;stroke-width:2.071;stroke-miterlimit:10;" x1="45.21" y1="83.7" x2="19.1" y2="46.76"/>
	</g>
	<polygon style="fill:#424242;" points="47.26,67.95 13.68,51.03 12.32,53.71 51.12,73.48 	"/>
	<polygon style="fill:#689F38;" points="108.79,64.03 106.33,61.33 68.5,78.69 47.26,68.18 50.88,73.36 64.95,80.55 75.43,78.94 	
		"/>
	<g>
		<path style="fill:#C62828;" d="M118.02,57.35L72.29,78.03c-2.82,1.33-5.76,1.2-8.46-0.36L6.09,48.35
			c-1.65-1.06-2.14-2.61-2.04-3.69s0.35-2.25,3.25-3.09l2.71-1l59.32,29.11l48.17-19.93L118.02,57.35z"/>
		<path style="fill:#F5F5F5;" d="M71.73,74.72c-2.32,1.09-5.03,0.99-7.26-0.26L8.1,46.06c-0.8-0.44-1.04-1.45-0.56-2.23
			c1.24-2.05,3.52-8.53-0.24-13.91l62.24,31.66L71.73,74.72z"/>
		<path style="fill:#94C6D6;" d="M115.58,55.01c0,0-43.83,19.7-43.85,19.71c-1.45,0.63-4.34,1.75-7.67-0.49
			c2.63,0.19,4.48-0.9,5.43-2.67c0.93-1.72,0.65-4.54-0.48-6.13c-0.69-0.96-2.54-2.49-3.35-3.35l47.43-18.55
			c4.2-1.73,8.14,0.86,8.77,4.01C122.56,51.1,118.02,54.01,115.58,55.01z"/>
		<path style="fill:#C62828;" d="M117.78,41.99l-45.27,20.2c-2.85,1.13-6.04,0.98-8.77-0.4L5.89,32.41c-0.6-0.3-1.5-1.07-1.79-2.16
			c-0.43-1.62,0.13-3.75,2.26-4.59l53.01-11.23L117.78,41.99z"/>
		<path style="fill:#F44336;" d="M121.18,44.92l-4.93-1.79l-10.16,0.59L72.51,58.71c-2.85,1.13-6.04,0.98-8.77-0.4L5.89,28.93
			c-1.49-0.76-0.96-2.77,0.47-3.28L48.06,7.01c1.19-0.22,2.41-0.09,3.52,0.38l59.49,28.36C111.07,35.75,120.51,42.21,121.18,44.92z"
			/>
		<path style="fill:#616161;" d="M105.53,44c0,0,5.21-1.83,10.13-1.61c4.92,0.22,7.69,3.05,7.69,3.05c-1.01-4.52-5.3-6.39-5.3-6.39
			l-65-32.73c-0.45-0.19-2.11-0.58-4.66,0.47c-2.06,0.85-8.79,4-8.79,4L105.53,44z"/>
		<g>
			<polygon style="fill:#424242;" points="111.48,41.86 44.97,8.31 47.17,7.32 114.81,41.22 			"/>
		</g>
		<path style="fill:#424242;" d="M123.61,46.25c-0.47-1.87-1.26-3.68-3.49-4.62c-2.85-1.2-5.45-1.45-9.69,0.18l-4.91,2.18v3.46
			l6.21-2.76c3.15-1.48,7.79-1.16,8.95,2.29c1.27,3.78-0.9,6.11-6.39,8.63l-8.92,4.02v3.48l10.26-4.57
			C120.18,56.72,125.36,53.3,123.61,46.25z"/>
	</g>
</g>
</svg>
